X:7823
T:Bj\"orkebergsvalsen
T:Grymme reven
C:anon.
O:Sweden
A:Pitedalen
R:Vals (brudevals) bridal waltz
Z:Transcribed by Frank Nordberg - http://www.musicaviva.com
F:http://abc.musicaviva.com/tunes/sweden/bjorkebergsvalsen.abc
M:3/4
L:1/8
K:G
GA|:B2B3A|G2G>A G>A|B2B4-|B3DGA|
B2B3A|c2c2B2|A6-|A4D2|
A2A3B|c2c2A2|f2f4-|f4g2|
f2f3e|d2-d>e (3ded|[1B2[G4-B4-]|[G4B4]GA:|[1B2[G4B4]-|[G3B3]GAB||
|:c2g2g2|f2e2g2|e2[c4e4]-|[c4e4]e2|g2g3g|f2e2g2|
d2B4-|B4 z d|G2G3A|B2B3c|d2A4-|A6|F4A2|
c4d2"^al coda"|G3[GB][G2B2]|[1[G3B3]GAB:|[2"_D. C. al coda"[G4B4]||
"^Coda"G3[Bg][B2g2]|[B4g4]|]
W:
W:
W:  From Musica Viva - http://www.musicaviva.com
W:  the Internet center for free sheet music downloads.
